X:1
T:Rondomized
C:Sophie Bartlett
M:4/4
L:1/4
Q:1/4=144
K:C
      C C/D/ E E   | G/F/E/D/ D2  | C/4D/4C/4D/4 C/D/E/D/E/D/ | F A, C2        |
[K:G] C C/D/E/F/ E | E/F/ E/G/ G2 | c/B/d/c/e/d/ f            | c/B/A/G/F/E/ F |
[K:C] C C/D/ E E   | G/F/E/D/ D2  | C/4D/4C/4D/4 C/D/E/D/E/D/ | F A, C2        |
[K:F] F A c B      | B/A/G/B/ G2  | c B A F                   | c/d/B/c/ A2    |
[K:C] C C/D/ E E   | G/F/E/D/ D2  | C/4D/4C/4D/4 C/D/E/D/E/D/ | F A, C2        |
      C C/D/E/F/ E | E/F/ E/G/ G2 |  c/B/d/c/e/d/ f           | c/B/A/G/F/E/ F |
      C C/D/ E E   | G/F/E/D/ D2  | C/4D/4C/4D/4 C/D/E/D/E/D/ | F A, C2        |
% Coda
      C/4D/4C/4D/4 C/D/E/D/E/D/ | F2 A,2 | C4 ||
